src/lib/images/icons/playstore.svg

<svg fill="none" viewBox="0 0 233 256" xmlns="http://www.w3.org/2000/svg"><g fill="#32bbff"><path d="m179.41 87.8117c-29.739-16.6335-77.471-43.343-151.5074-84.79762-4.9915-3.296506-10.7345-3.728507-15.6965-2.049004l127.0249 127.024924z"/><path d="m12.2065.965088c-.93.315002-1.835.695002-2.70048 1.154002-5.47951 2.96401-9.50602 8.66751-9.50602 15.88101v219.9809c0 7.213 4.02601 12.917 9.50602 15.88.86398.459 1.76848.84 2.69748 1.157l127.0285-127.028z"/><path d="m139.231 127.99-127.0279 127.028c4.9635 1.692 10.7065 1.293 15.6996-2.052 71.7991-40.205 118.9933-66.598 149.0763-83.373.837-.47 1.658-.93 2.469-1.386z"/></g><path d="m0 127.99v109.99c0 7.214 4.02601 12.917 9.50602 15.881.86398.458 1.76848.84 2.69748 1.157l127.0285-127.028z" fill="#2c9fd9"/><path d="m27.9029 3.01396c-5.9275-3.914007-12.9175-3.802507-18.39704-.8945l127.79814 127.79854 42.106-42.1064c-29.739-16.6335-77.471-43.3431-151.5071-84.79764z" fill="#29cc5e"/><path d="m137.305 126.063-127.79914 127.798c5.48004 2.907 12.46954 3.075 18.39704-.895 71.7991-40.205 118.9931-66.598 149.0761-83.373.838-.47 1.658-.93 2.469-1.386z" fill="#d93f21"/><path d="m232.451 127.99c0-6.095-3.076-12.246-9.171-15.657 0 0-11.4-6.36-46.341-25.9043l-41.562 41.5613 41.602 41.603c34.558-19.404 46.3-25.946 46.3-25.946 6.096-3.411 9.172-9.562 9.172-15.657z" fill="#ffd500"/><path d="m223.28 143.647c6.095-3.411 9.171-9.562 9.171-15.657h-97.074l41.602 41.603c34.559-19.403 46.301-25.946 46.301-25.946z" fill="#fa0"/></svg>

<svg id="playstore-logo" viewBox="0 0 233 256" fill="none" xmlns="http://www.w3.org/2000/svg">
<path d="M179.41 87.8117C149.671 71.1782 101.939 44.4687 27.9026 3.01408C22.9111 -0.282426 17.1681 -0.714427 12.2061 0.965076L139.231 127.99L179.41 87.8117Z" fill="#32BBFF" class="svg-elem-1"></path>
<path d="M12.2065 0.965088C11.2765 1.28009 10.3715 1.66009 9.50602 2.11909C4.02651 5.0831 0 10.7866 0 18.0001V237.981C0 245.194 4.02601 250.898 9.50602 253.861C10.37 254.32 11.2745 254.701 12.2035 255.018L139.232 127.99L12.2065 0.965088Z" fill="#32BBFF" class="svg-elem-2"></path>
<path d="M139.231 127.99L12.2031 255.018C17.1666 256.71 22.9096 256.311 27.9027 252.966C99.7018 212.761 146.896 186.368 176.979 169.593C177.816 169.123 178.637 168.663 179.448 168.207L139.231 127.99Z" fill="#32BBFF" class="svg-elem-3"></path>
<path d="M0 127.99V237.98C0 245.194 4.02601 250.897 9.50602 253.861C10.37 254.319 11.2745 254.701 12.2035 255.018L139.232 127.99H0Z" fill="#2C9FD9" class="svg-elem-4"></path>
<path d="M27.9029 3.01396C21.9754 -0.900047 14.9854 -0.788547 9.50586 2.11946L137.304 129.918L179.41 87.8116C149.671 71.1781 101.939 44.4685 27.9029 3.01396Z" fill="#29CC5E" class="svg-elem-5"></path>
<path d="M137.305 126.063L9.50586 253.861C14.9859 256.768 21.9754 256.936 27.9029 252.966C99.702 212.761 146.896 186.368 176.979 169.593C177.817 169.123 178.637 168.663 179.448 168.207L137.305 126.063Z" fill="#D93F21" class="svg-elem-6"></path>
<path d="M232.451 127.99C232.451 121.895 229.375 115.744 223.28 112.333C223.28 112.333 211.88 105.973 176.939 86.4287L135.377 127.99L176.979 169.593C211.537 150.189 223.279 143.647 223.279 143.647C229.375 140.236 232.451 134.085 232.451 127.99Z" fill="#FFD500" class="svg-elem-7"></path>
<path d="M223.28 143.647C229.375 140.236 232.451 134.085 232.451 127.99H135.377L176.979 169.593C211.538 150.19 223.28 143.647 223.28 143.647Z" fill="#FFAA00" class="svg-elem-8"></path>
</svg>
